!!!COM: Palestrina, Giovanni Perluigi da
!!!OPR: Missa Octavi toni
!!!OMD: Credo
!!!OTL: resurrectionem
**kern	**kern	**kern	**kern	**kern	**kern
*Ibass	*Itenor	*Itenor	*Icalto	*Icant	*Icant
!Bassus	!Tenor 2	!Tenor 1	!Altus	!Cantus 2	!Cantus 1
*clefF4	*clefGv2	*clefGv2	*clefG2	*clefG2	*clefG2
*k[]	*k[]	*k[]	*k[]	*k[]	*k[]
*G:mix	*G:mix	*G:mix	*G:mix	*G:mix	*G:mix
*M3/2	*M3/2	*M3/2	*M3/2	*M3/2	*M3/2
=186	=186	=186	=186	=186	=186
1G	1B	1r	2g	2dd	1b
.	.	.	2g	2dd	.
2C	2c	2r	2g	2ee	2r
=187	=187	=187	=187	=187	=187
1G	1B	2r	1g	1dd	1r
.	.	2d	.	.	.
2C	2c	2e	2g	2cc	2r
=188	=188	=188	=188	=188	=188
1G	1d	2d	1g	1b	1r
.	.	2G	.	.	.
2D	2d	2A	2f	2a	2r
=189	=189	=189	=189	=189	=189
1G	1r	2B	1d	1g	1r
.	.	2B	.	.	.
2A	2r	2c	2c	2f#	2r
=190	=190	=190	=190	=190	=190
1G	2r	1d	1B	1g	2r
.	2B	.	.	.	2dd
2C	2c	2c	[2G	2g	2ee
=191	=191	=191	=191	=191	=191
2r	1B	2r	2G]	1r	1dd
2G	.	2d	2g	.	.
2C	2c	2e	2g	2r	2cc
=192	=192	=192	=192	=192	=192
2G	2d	2d	2g	1r	1b
2E	2e	2G	2g	.	.
2F	2c	2A	2f	2r	2a
=193	=193	=193	=193	=193	=193
2G	2B	2B	2d	1r	1g
2E	2G	2c	2e	.	.
2D	2A	2d	2A	2r	2f#
=194	=194	=194	=194	=194	=194
1C	2.E	1e	1c	1r	1g
.	4F	.	.	.	.
2GG	2G	2d	2B	2r	2g
*-	*-	*-	*-	*-	*-
!!!CDT: 1525/^1526/-1594/2/2
!!!OCY: Italia
!!!AGN: Mass (Tenor)
!!!AST: renaissance, vocal
!!!ASW: Hymn
!!!PWK: Masses, Book 11
!!!RNB: Cadence finals: A,C
!!!YOR: Le Opere Complete, v. 28, p. 114
!!!YOO: Rome, Italy: Fratelli Scalera
!!!END: 1992//
!!!EED: John Miller
!!!YEC: Copyright 2000, John Miller
!!!YEN: United States of America
!!!YEM: Rights to all derivative electronic formats reserved.
!!!YEM: Refer to licensing agreement for further details.
!!!YEM: This file must be accompanied by the licensing agreement.
!!!YEM: A copy of the licensing agreement may be found at http://www.music-cog.ohio-state.edu/HumdrumDatabases/Palestrina/license.txt
!!!EMD: converted to Humdrum by Bret Aarden
